X: 28623
T: Music In The Glen
R: reel
M: 4/4
K: Gmajor
|:G2BG EGDc|BDGB AGAB|cdec BBdB|BAAG AGEF|
GABG EGDc|BDGB AGAB|cdef g2ge|dcBA G2|D2:|
BG dG egdA|AGdB cAFA|BG dG eg de|gdcA BGED|
AG dG egde|ggfg a~f3|g2fg (3efg dB|cABG AGEF|

